X:520
T:Kiss Me Kate
R:reel
Z:id:hn-reel-520
M:C|
K:G
G2Bd gdBG|DEGB AE~E2|GABd gdBd|1 cBAc BGGF:|2 cBAc BG~G2||
fgag fdef|gfga bgeg|fgag fdde|fdef ~g3f|
gbaf gbag|fgag fdde|fded fded|(3Bcd ef gedB||
P:variations
|:GABd gdBG|DEGB AE~E2|G2Bd gdBd|1 ecAc BGEF:|2 ecAc BGGe||
fgag fd~d2|~g3a bgeg|fgag fd~d2|edef g2ef|
gbaf ~g3f|gbag fdde|fd~d2 ABcd|~e3f gedB||

